X:1
T:Lasso s'in un sol ponto
T:Jhan Gero
T:Source : Trium vocum cantiones---Nürnberg---J.Petreius---1541. Editor : André Vierendeels (19/04/16).
T:Notes : Original clefs : C3, C4, F4 Editorial accidentals above the staff Original note valuas have been halved m 23 in T 2 :  "D" notated as "E" in original print 
T:Lasso s'in un sol ponto
T:©
T:©
T:©
T:©
T:©
C:Jhan Gero
Z:©
%%score [ 1 2 3 ]
L:1/8
Q:1/4=120
M:2/2
K:F
V:1 treble-8 nm="Tenor 1" snm="T 1"
V:2 treble-8 nm="Tenor 2" snm="T 2"
V:3 bass nm="Bass" snm="B"
V:1
 z8 | z8 | d8 | c2 f2 e2 c2 | dcBA B4 | A4 d4 | e2 e2 f2 f2 | d2 d2 g4- | g2 f2 e4 | d8 | z4 a4 | %11
w: ||Las-|so s'in un sol|_ _ _ _ pon-|to, del|mio ca- ro si-|gnor il dol-|* ce sguar-|do,|si|
 f2 g2 d2 d2 | _e2 c2 d3 c | B2 c2 A4 | G4 g4- | g2 fe f4- | f4 d4 | f2 f2 e2 c2 | d2 e2 d3 f | %19
w: pot' in me ch'o-|gnor mi strugg' et|ar- * *|do, che|_ _ _ fia|_ se|me- c'un ann' in-|ter' il fuo- co-|
 e2 d4 c2 | d4 z2 d2 | d2 c2 B4 | A3 B c2 B2- | BA A4 G2 | A4 A4 | B4 c4 | d4 e4 | f4 g4 | %28
w: vi- * *|va, che|da be- glioc-|chi _ _ nac-|* * qu'in _|me, et|va cre-|scend' a-|poc' a-|
 a2 g4 f2 | g8 | d4 d2 d2 | f3 e d2 c2 | B4 A2 d2 | d2 c2 d2 B2 | A2 d2 c2 f2 | e2 d4 c2 | d8 | %37
w: po- * *|co,|che se di|no- * * vo|to- chi, il|rag- gio di bel|lu- mi che m'in-|fiam- * *|ma|
 d4 f3 f | e2 c2 d2 d2 | B2 c2 A4 | G2 d2 f3 f | e2 c2 d2 d2 | B2 c2 A4 | G8- | G8- | G8 |] %46
w: il cor ch'ad|un sol sguar- do|tutt' in fiam-|ma, il cor ch'ad|un sol sguar- do|tutt' in fiam-|ma.|_||
V:2
 z4 A4- | A4 G2 c2 | B2 G3 ABG | A2 F2 G2 A2 | B2 A4 G2 | A2 A2 A2 B2 | c2 c2 A4- | A2 B2 G3 A | %8
w: Las-|* so s'in|un sol _ _ _|_ pon- * *||to, del mio ca-|ro si- gnor|_ il dol- ce|
 Bc d4 c2 | d4 z2 d2 | B2 c2 A4- | A2 G2 G2 F2 | G2 A2 B2 A2- |"^#" AG G4 F2 | G4 B4 | A8 | %16
w: _ _ sguar- *|do, si|pot' in me|_ ch'o- gnor mi|strugg' et ar- *|||do,|
 z2 A2 B2 B2 | A2 F2 G2 A2 | G4 B3 A | G2 F2 E4 | D2 G2 G2 F2 | E4 D2 G2- | G2 D2 F2 F2- | %23
w: che fia se|me- c'un ann' in-|ter' il _|fuo- co vi-|va, che da be-|glioc- chi nac-|* * * qu'in-|
 FEDC D4 | E8 | D4 E2 F2- | F2 G4 A2- | A2 B4 B2 | c3 B A4 | G4 z2 G2 | G2 G2 B2 B2 | A4 A4 | %32
w: |me,|et va cre-|* scend' a|_ poc' a|po- * *|co, che|se di no- vo|to- chi,|
 z2 G2 G2 F2 | G2 E2 D2 G2 | F2 D2 A3 G/F/ | G2 F2 E4 | D4 A4 | B3 B A2 F2 | G2 A2 B2 A2- | %39
w: il rag- gio|di bel lu- mi|che m'in- fiam- * *||ma il|cor ch'ad un sol|sguar- do tutt' in-|
 AG G4 F2 | B3 B A2 F2 | G2 A2 B2 A2- |"^#" AG G4 F2 |"^b" G2 E4 D2 |"^b" E8 | D8 |] %46
w: * * fiam- *|ma, il cor ch'ad|un sol sguar- do|_ tutt' in fiam-|ma, tutt' in-|fiam-|ma.|
V:3
 D,8 | C,2 F,2 E,2 C,2 | D,C,B,,A,, B,,4 | A,,2 D,2 C,4 | z2 D,2 D,2 E,2 | F,2 F,2 D,4 | C,4 F,4- | %7
w: Las-|so s'in un sol|_ _ _ _ _|* pon- to,|del mio ca-|ro si- gnor|il dol-|
 F,2 G,2 E,4 | D,4 A,4 | F,2 G,2 D,2 D,2 | _E,2 C,2 D,4- | D,2 _E,2 B,,2 D,2 | C,4 B,,2 D,2 | %13
w: * ce sguar-|do, si|pot' in me ch'o-|gnor mi strugg'|_ et ar- *|* do, et|
 _E,2 C,2 D,4 | G,,4 G,,4 | D,8- | D,4 G,,4 | D,2 D,2 C,2 A,,2 | B,,2 C,2 G,,2 B,,2 | %19
w: ar- * *|do, che|fia|_ se|me- c'un ann' in-|ter' il fuo- co|
 C,2 D,2 A,,2 A,,2 | B,,2 G,,2 D,4 | A,,2 A,,2 B,,2 G,,2 | D,4 A,,2 D,2- | D,C,B,,A,, B,,4 | %24
w: vi- * va, che|da be- glioc-|chi, che da be-|glioc- chi nac-|* * * * qu'in|
"^#" A,,8 | z4 A,,4 | B,,4 C,4 | D,4 _E,4 | C,2 C,2 D,4 | G,,8 | z2 G,,2 G,,2 G,,2 | %31
w: me,|et|va cre-|scend' a|po- co'a po-|co,|che se di|
 D,3 E, F,2 F,2 | G,4 D,4 | z2 A,,2 B,,2 G,,2 | D,2 B,,2 A,,2 D,2 | C,2 D,2 A,,4 | D,4 D,4 | %37
w: no- * * vo|to- chi,|il rag- gio|di bel lu- mi|che m'in- fiam-|ma il|
 G,3 G, F,2 D,2 | E,2 F,2 B,,2 D,2 | _E,2 C,2 D,2 D,2 | G,3 G, F,2 D,2 | E,2 F,2 B,,2 D,2 | %42
w: cor ch'ad un sol|sguar- do tutt' in|fiam- * ma, il|cor ch'ad un sol|sguar- * * do|
 _E,2 C,2 D,4 | G,,2 C,4 B,,2 | C,8 | G,,8 |] %46
w: tutt' in fiam-|ma, tutt' in|fiam-|ma.|

